icons/hexagon-help-outline.svg

<svg xmlns="http://www.w3.org/2000/svg" width="24" height="24" viewBox="0 0 24 24">
  <path d="M16.3174576,1 C17.4115312,1 18.4188507,1.59559898 18.9461053,2.55424375 L18.9461053,2.55424375 L23.3461053,10.5542438 C23.8412416,11.4544917 23.8412416,12.5455083 23.3461053,13.4457562 L23.3461053,13.4457562 L18.9461053,21.4457562 C18.4188507,22.404401 17.4115312,23 16.3174576,23 L16.3174576,23 L7.68254244,23 C6.58846875,23 5.58114934,22.404401 5.05389472,21.4457562 L5.05389472,21.4457562 L0.653894716,13.4457562 C0.158758351,12.5455083 0.158758351,11.4544917 0.653894716,10.5542438 L0.653894716,10.5542438 L5.05389472,2.55424375 C5.58114934,1.59559898 6.58846875,1 7.68254244,1 L7.68254244,1 Z M16.3174576,3 L7.68254244,3 C7.31785121,3 6.98207807,3.19853299 6.80632653,3.51808125 L6.80632653,3.51808125 L2.40632653,11.5180813 C2.24128108,11.8181639 2.24128108,12.1818361 2.40632653,12.4819187 L2.40632653,12.4819187 L6.80632653,20.4819187 C6.98207807,20.801467 7.31785121,21 7.68254244,21 L7.68254244,21 L16.3174576,21 C16.6821488,21 17.0179219,20.801467 17.1936735,20.4819187 L17.1936735,20.4819187 L21.5936735,12.4819187 C21.7587189,12.1818361 21.7587189,11.8181639 21.5936735,11.5180813 L21.5936735,11.5180813 L17.1936735,3.51808125 C17.0179219,3.19853299 16.6821488,3 16.3174576,3 L16.3174576,3 Z M12,15 C12.5522847,15 13,15.4477153 13,16 C13,16.5522847 12.5522847,17 12,17 C11.4477153,17 11,16.5522847 11,16 C11,15.4477153 11.4477153,15 12,15 Z M12.1,7 C13.8,7 15.1,8.3 15.1,10 C15.1,11.4 14.2,12 13.6,12.4 C13.1454545,12.6727273 13.0214876,12.7801653 13.0027047,12.9477085 L13,13 L13,14 L11,14 L11,13 C11,11.7 11.9,11.1 12.5,10.7 C13,10.4 13.1,10.2 13.1,9.9 C13.1,9.3 12.7,9 12.1,9 C11.75,9 11.4765625,9.153125 11.2796875,9.39238281 L11.2,9.5 L11.1789188,9.53794618 C11.1750832,9.54485031 11.1711627,9.55170695 11.1671582,9.55851454 C10.9184586,9.98130389 10.3968515,10.1440978 9.95782931,9.95473156 L9.85,9.9 L9.84096572,9.89468572 C9.40918266,9.64069568 9.23714337,9.11159999 9.42052358,8.6585764 L9.47382857,8.54710857 L9.5,8.5 C10,7.6 11,7 12.1,7 Z"/>
</svg>

<svg xmlns="http://www.w3.org/2000/svg" viewBox="0 0 24 24">
  <path d="M16.32 1a3 3 0 0 1 2.63 1.55l4.4 8c.5.9.5 2 0 2.9l-4.4 8A3 3 0 0 1 16.32 23H7.68a3 3 0 0 1-2.63-1.55l-4.4-8a3 3 0 0 1 0-2.9l4.4-8A3 3 0 0 1 7.68 1zm0 2H7.68a1 1 0 0 0-.87.52l-4.4 8a1 1 0 0 0 0 .96l4.4 8a1 1 0 0 0 .87.52h8.64a1 1 0 0 0 .87-.52l4.4-8a1 1 0 0 0 0-.96l-4.4-8a1 1 0 0 0-.87-.52zM12 15a1 1 0 1 1 0 2 1 1 0 0 1 0-2zm.1-8c1.7 0 3 1.3 3 3 0 1.4-.9 2-1.5 2.4-.45.27-.58.38-.6.55V14h-2v-1c0-1.3.9-1.9 1.5-2.3.5-.3.6-.5.6-.8 0-.6-.4-.9-1-.9a1 1 0 0 0-.82.4l-.08.1-.02.04a.96.96 0 0 1-1.22.41l-.11-.05a1 1 0 0 1-.43-1.24l.05-.11.03-.05C10 7.6 11 7 12.1 7z"/>
</svg>
